X: 10143
Q: "Moderate."
M: 6/8
L: 1/8
K: A
E |\
E2F A2A | BBc B2A |\
d2d c2c | BcA B2A |\
d2d c2c | (BcA) B>cd |\
e2A A2G | {G}F2F Ec>d |\


